X: 66
T: All The Way To Galway
% Nottingham Music Database
B: NEFR #66
S: Kevin Briggs, via EF
M: 4/4
L: 1/4
K: D
|:"D"A>B AG | "D"FA d2 | "Em"EF G((3F/G/F/) | "A7"EF G^G |
| "D"A>B AG | "D"FA d>d | "A7"cA GE | "D"D2 D2 :|
|:"D"d>e fd | "A"cA A2 | "G"BG G/A/B/G/ | "D"BA "A7"A2 |
| "D"d>e fd | "A"ca a>a | "G"ba "A7"ge | "D"d2 d2 :|
